assets/logos/meta.svg

<svg width="80" height="80" viewBox="0 0 80 80" fill="none" xmlns="http://www.w3.org/2000/svg">
<path d="M21.8818 44.7843C21.8818 46.5089 22.2606 47.833 22.7557 48.634C23.4048 49.6832 24.373 50.1277 25.36 50.1277C26.6331 50.1277 27.7978 49.812 30.0422 46.7099C31.8403 44.2236 33.959 40.7335 35.3845 38.5455L37.7987 34.8387C39.4757 32.2644 41.4168 29.4026 43.6424 27.4628C45.4593 25.8796 47.4193 25 49.3918 25C52.7034 25 55.8579 26.9178 58.2721 30.5147C60.9141 34.4539 62.1967 39.4157 62.1967 44.5361C62.1967 47.5801 61.5963 49.8168 60.5746 51.5838C59.5876 53.2927 57.6638 55 54.4276 55V50.1277C57.1986 50.1277 57.8901 47.5832 57.8901 44.6712C57.8901 40.5215 56.9219 35.9162 54.7891 32.6257C53.2755 30.2916 51.314 28.8654 49.156 28.8654C46.822 28.8654 44.9438 30.6246 42.833 33.7613C41.7107 35.4277 40.5587 37.4586 39.2651 39.7503L37.8411 42.2712C34.9806 47.3398 34.256 48.4942 32.8257 50.3995C30.3188 53.7356 28.1781 55 25.36 55C22.017 55 19.903 53.5534 18.5937 51.3733C17.525 49.5969 17 47.266 17 44.6099L21.8818 44.7843Z" fill="#0081FB"/>
<path d="M20.8491 30.8586C23.0873 27.411 26.3172 25 30.0217 25C32.1671 25 34.3 25.6346 36.5271 27.4518C38.9633 29.4387 41.5598 32.7105 44.7991 38.1026L45.9606 40.0377C48.7646 44.7058 50.3599 47.1073 51.2935 48.2398C52.4943 49.6942 53.3352 50.1277 54.4276 50.1277C57.1985 50.1277 57.8901 47.5832 57.8901 44.6712L62.1966 44.5361C62.1966 47.5801 61.5962 49.8168 60.5746 51.5838C59.5875 53.2927 57.6637 55 54.4276 55C52.4157 55 50.6334 54.5634 48.6625 52.7052C47.1473 51.2791 45.376 48.7455 44.0133 46.4681L39.9598 39.7016C37.926 36.3058 36.0603 33.7738 34.9805 32.6272C33.819 31.3942 32.3259 29.9052 29.9431 29.9052C28.0146 29.9052 26.3769 31.2576 25.0063 33.3262L20.8491 30.8586Z" fill="url(#paint0_linear_12135_2010)"/>
<path d="M29.9432 29.9052C28.0147 29.9052 26.3769 31.2576 25.0064 33.3262C23.0684 36.2492 21.8818 40.6031 21.8818 44.7843C21.8818 46.5089 22.2606 47.833 22.7557 48.634L18.5937 51.3733C17.525 49.5969 17 47.266 17 44.6099C17 39.7801 18.3265 34.7461 20.8492 30.8586C23.0873 27.411 26.3172 25 30.0218 25L29.9432 29.9052Z" fill="url(#paint1_linear_12135_2010)"/>
<defs>
<linearGradient id="paint0_linear_12135_2010" x1="26.5875" y1="43.377" x2="57.7076" y2="44.9497" gradientUnits="userSpaceOnUse">
<stop stop-color="#0064E1"/>
<stop offset="0.4" stop-color="#0064E1"/>
<stop offset="0.83" stop-color="#0073EE"/>
<stop offset="1" stop-color="#0082FB"/>
</linearGradient>
<linearGradient id="paint1_linear_12135_2010" x1="24.0728" y1="46.8325" x2="24.0728" y2="35.3665" gradientUnits="userSpaceOnUse">
<stop stop-color="#0082FB"/>
<stop offset="1" stop-color="#0064E0"/>
</linearGradient>
</defs>
</svg>

<svg xmlns="http://www.w3.org/2000/svg" width="80" height="80" fill="none" viewBox="0 0 80 80"><path fill="#0081fb" d="M21.882 44.784c0 1.725.379 3.049.874 3.85.649 1.05 1.617 1.494 2.604 1.494 1.273 0 2.438-.316 4.682-3.418 1.798-2.486 3.917-5.977 5.343-8.165l2.414-3.706c1.677-2.575 3.618-5.436 5.843-7.376C45.46 25.88 47.42 25 49.392 25c3.311 0 6.466 1.918 8.88 5.515 2.642 3.939 3.925 8.9 3.925 14.021 0 3.044-.6 5.28-1.622 7.048C59.588 53.293 57.664 55 54.428 55v-4.872c2.77 0 3.462-2.545 3.462-5.457 0-4.15-.968-8.755-3.1-12.045-1.514-2.334-3.476-3.76-5.634-3.76-2.334 0-4.212 1.759-6.323 4.895-1.122 1.667-2.274 3.698-3.568 5.99l-1.424 2.52c-2.86 5.069-3.585 6.223-5.015 8.129-2.507 3.336-4.648 4.6-7.466 4.6-3.343 0-5.457-1.447-6.766-3.627C17.525 49.597 17 47.266 17 44.61z"/><path fill="url(#a)" d="M20.85 30.859C23.086 27.41 26.316 25 30.021 25c2.145 0 4.278.635 6.505 2.452 2.436 1.987 5.033 5.259 8.272 10.65l1.162 1.936c2.804 4.668 4.399 7.07 5.333 8.202 1.2 1.454 2.041 1.888 3.134 1.888 2.77 0 3.462-2.545 3.462-5.457l4.307-.135c0 3.044-.6 5.28-1.622 7.048-.987 1.709-2.91 3.416-6.146 3.416-2.012 0-3.795-.437-5.765-2.295-1.516-1.426-3.287-3.96-4.65-6.237l-4.053-6.766c-2.034-3.396-3.9-5.928-4.98-7.075-1.161-1.233-2.654-2.722-5.037-2.722-1.928 0-3.566 1.353-4.937 3.421z"/><path fill="url(#b)" d="M29.943 29.905c-1.928 0-3.566 1.353-4.937 3.421-1.938 2.923-3.124 7.277-3.124 11.458 0 1.725.379 3.049.874 3.85l-4.162 2.74C17.525 49.596 17 47.265 17 44.61c0-4.83 1.326-9.864 3.85-13.751C23.086 27.41 26.316 25 30.021 25z"/><defs><linearGradient id="a" x1="26.587" x2="57.708" y1="43.377" y2="44.95" gradientUnits="userSpaceOnUse"><stop stop-color="#0064e1"/><stop offset=".4" stop-color="#0064e1"/><stop offset=".83" stop-color="#0073ee"/><stop offset="1" stop-color="#0082fb"/></linearGradient><linearGradient id="b" x1="24.073" x2="24.073" y1="46.833" y2="35.367" gradientUnits="userSpaceOnUse"><stop stop-color="#0082fb"/><stop offset="1" stop-color="#0064e0"/></linearGradient></defs></svg>
